X: 30463
T: Old Wheels Of The World, The
R: reel
M: 4/4
K: Dmixolydian
g2 gf|:eAAA eAcA|GE (3EEE ~G3E|A2AB cBcd|ef (3.g.f.e dg(3.f.g.f|
eAAA eAcA|GE (3EEE ~G3E|A2AB cBcd|egge d2 Bc:|
dggg dggg|eaaa eaag|efge defg|af (3.g.f.e .d.cBc|
dggg dgfg|eaaa eaag|efge defg|af (3.g.f.e dg (3.f.g.f:|

